X:1
T:My Pilot Is Jesus
T:French Earl Oliver, 1908
T:My Pilot Is Jesus
T:Public Domain
T:Public Domain
C:French Earl Oliver, 1908
Z:Public Domain
%%score ( 1 2 ) ( 3 4 )
L:1/8
M:6/8
K:Eb
V:1 treble 
V:2 treble 
V:3 bass 
V:4 bass 
V:1
 E | [EG]2 [EG] (BA)[E^F] | [EG]2 [EG] [B,E]2 [EG] | [DB]3 ([DF][EG])[FA] | [EA]3 [EG]2 E | %5
w: 1.~I’m|life’s o- cean, * home-|bound, My Pi- lot|is Je- * sus;|Where ma- ny|
w: 2.~The|ship Zi- on * is|boat, My Pi- lot|is Je- * sus;|In ev- ery|
w: 3.~No|ing rock or * treach-|shoal, My Pi- lot|is Je- * sus.|Can wreck me|
w: 4.~He|the rag- ing * winds|will, My Pi- lot|is Je- * sus;|He speaks, and|
 [EG]2 [EG] (BA)[E^F] | [EG]2 [Ac] [GB]2 [GB] | [F=A]3 [FG]2 [FA] | [Fc]3 (B[=Ac]) || %9
w: sions will be * found,|Pi- lot is Je-|sus. * *||
w: she’ll safe- ly * float,|Pi- lot is Je-|sus. * *||
w: I reach my * goal,|Pi- lot is Je-|sus. My Pi-|lot is *|
w: ing waves are * still,|Pi- lot is Je-|sus. * *||
"^Refrain" [Ad] | [Ge]4 [Gd][Ac] | [Ac] [GB]4 [GB] | [Ac]3 [Bd]2 [Ac] | [Ac] [GB]4 [GB] | %14
w: |||||
w: |||||
w: sus,|My Pi- lot|is Je- sus;|Oh, what care|I though waves|
w: |||||
 [Ec]2 [Ec] [EB]2 [EB] | [Fd]2 [Fd] [Ee]2 (d/c/) | [EB]3 [DA]2 [B,D] | [DF]3 E2 |] %18
w: ||||
w: ||||
w: are high; My Pi-|lot is Je- sus. *|||
w: ||||
V:2
 E | x3 E2 x | x6 | x6 | x5 E | x3 E2 x | x6 | x6 | x3 B x || x | x6 | x6 | x6 | x6 | x6 | x5 E | %16
w: on|ward|||man-|My|||||||||||
w: old|my|||storm|My|||||||||||
w: hid-|erous|||ever|My|||Je-||||||||
w: calms|at|||lash-|My|||||||||||
 x6 | x3 E2 |] %18
w: ||
w: ||
w: ||
w: ||
V:3
 [E,G,] | [E,B,]2 [E,B,] (DC)[E,=A,] | [E,B,]2 [E,B,] [E,G,]2 [E,B,] | [B,,B,]3 [B,,B,]2 [B,,B,] | %4
 [E,C]3 [E,B,]2 [E,G,] | [E,B,]2 [E,B,] (DC)[E,=A,] | [E,B,]2 [E,B,] [E,E]2 [E,E] | %7
 [F,E]3 [F,E]2 [F,E] | [B,E]3 (DE) || [B,F] | [E,E]4 [E,E][E,D] | [E,E] [E,E]4 [E,E] | %12
 [A,E]3 [A,E]2 [A,E] | [E,E] [E,E]4 [E,E] | [A,E]2 [A,E] [G,E]2 [G,B,] | %15
 [F,B,]2 [B,,A,] [C,G,]2 [=A,,^F,] | G,2 _G, [B,,F,]2 [B,,A,] | [B,,A,]3 [E,G,]2 |] %18
V:4
 x | x3 E,2 x | x6 | x6 | x6 | x3 E,2 x | x6 | x6 | x3 B,2 || x | x6 | x6 | x6 | x6 | x6 | x6 | %16
 B,,3 x3 | x5 |] %18

